Adwaita++/apps/scalable/audacious.svg

<svg enable-background="new" height="128" viewBox="0 0 128 128" width="128" xmlns="http://www.w3.org/2000/svg">
  <g transform="translate(0 -172)">
    <path d="m123.99993 237a59.999995 59.999995 0 0 1 -59.999985 60 59.999995 59.999995 0 0 1 -60.0000069-60 59.999995 59.999995 0 0 1 60.0000069-59.99999 59.999995 59.999995 0 0 1 59.999985 59.99999z" fill="#deddda"/>
    <rect fill="#d5d3cf" height="114" rx="56" width="112" x="8" y="179"/>
    <path d="m123.99993 235a59.999995 59.999995 0 0 1 -59.999985 59.99999 59.999995 59.999995 0 0 1 -60.0000069-59.99999 59.999995 59.999995 0 0 1 60.0000069-60 59.999995 59.999995 0 0 1 59.999985 60z" fill="#f6f5f4"/>
    <circle cx="64" cy="235" fill="#3d3846" r="54"/>
    <path d="m64.000045 181a54 54 0 0 0 -54 54 54 54 0 0 0 .0415 1.1709 54 54 0 0 1 53.9585-53.1709 54 54 0 0 1 53.958495 52.82813 54 54 0 0 0 .0415-.82813 54 54 0 0 0 -54.000005-54z" opacity=".1"/>
    <path d="m65.072361 214.54905c-.347693.01-.698846.0274-1.056641.043-4.249307.18441-11.768878.0334-14.701176 3.49414-1.79185 2.11478-.95679 7.03208 1.78907 7.54297 3.420737.63648 9.20487-.94255 12.912106-.55469 2.584869.27042 3.341361 2.34962 1.236328 3.79297-2.228894 1.52822-7.289102 1.06446-9.84375 1.83203-8.832214 2.65371-12.006374 8.27572-9.843754 15.89453 1.41014 4.96796 6.400574 8.65597 11.845708 8.86523 10.474581-.023 8.521935-5.30894 13.59375-2.55859 1.669096 1.92646 5.032296 2.547 6.77539 1.19336 2.802462-2.17636 7.029808-3.34279 4.048828-7.79687-1.427561-2.13298 1.899324-4.89715 1.150391-15.51172-.664404-9.41621-6.689836-15.87493-16.875-16.23633-.339503-.0121-.683558-.01-1.03125 0zm-.332031 22.75586c2.359104 0 4.21875 1.65161 4.21875 3.70703s-1.859646 3.75-4.21875 3.75c-2.359102 0-4.304688-1.69458-4.304688-3.75s1.945586-3.70703 4.304688-3.70703z" fill="#f6f5f4"/>
  </g>
</svg>

<svg xmlns="http://www.w3.org/2000/svg" xmlns:xlink="http://www.w3.org/1999/xlink" style="enable-background:new" width="128" height="128" version="1.0" viewBox="0 0 128 128">
 <title id="title4162">
  Adwaita Icon Template
 </title>
 <defs>
  <linearGradient id="linearGradient950">
   <stop style="stop-color:#9a9996" id="stop946" offset="0"/>
   <stop style="stop-color:#77767b" id="stop948" offset="1"/>
  </linearGradient>
  <linearGradient id="linearGradient1001" x1="1660.857" x2="1662.99" y1="806.297" y2="812.882" gradientTransform="matrix(1.8293937,-0.81599442,0.81599442,1.8293937,-3645.9624,100.02949)" gradientUnits="userSpaceOnUse" xlink:href="#linearGradient950"/>
  <filter id="filter913" width="1.046" height="1.05" x="-.02" y="-.03" style="color-interpolation-filters:sRGB">
   <feGaussianBlur id="feGaussianBlur17" stdDeviation="2.32"/>
  </filter>
  <filter id="filter4569" width="1.023" height="1.025" x="-.01" y="-.01" style="color-interpolation-filters:sRGB">
   <feGaussianBlur id="feGaussianBlur14" stdDeviation="1.16"/>
  </filter>
  <linearGradient id="linearGradient1108" x1="296" x2="296" y1="-212" y2="236" gradientUnits="userSpaceOnUse">
   <stop style="stop-color:#ffffff" id="stop2" offset="0"/>
   <stop style="stop-color:#ffffff;stop-opacity:.09803922" id="stop4" offset=".125"/>
   <stop style="stop-color:#000000;stop-opacity:.09803922" id="stop6" offset=".925"/>
   <stop style="stop-color:#000000;stop-opacity:.49803922" id="stop8" offset="1"/>
  </linearGradient>
  <clipPath id="clipPath1082-3-2">
   <path style="fill:#8c59d9" d="M 361.9375,-212 C 507.2348,-212 528,-191.28677 528,-46.125 V 70.125 C 528,215.28618 507.2348,236 361.9375,236 H 214.0625 C 68.7652,236 48,215.28618 48,70.125 V -46.125 C 48,-191.28677 68.7652,-212 214.0625,-212 Z"/>
  </clipPath>
  <filter id="filter953" width="1.096" height="1.096" x="-.05" y="-.05" style="color-interpolation-filters:sRGB">
   <feGaussianBlur id="feGaussianBlur20" stdDeviation="1.75"/>
  </filter>
 </defs>
 <g id="layer1" transform="translate(0,-172)">
  <g id="layer9">
   <path d="M 123.99993,237 A 59.999995,59.999995 0 0 1 63.999945,297 59.999995,59.999995 0 0 1 3.9999381,237 59.999995,59.999995 0 0 1 63.999945,177.00001 59.999995,59.999995 0 0 1 123.99993,237 Z" style="fill:#deddda"/>
   <rect style="fill:#d5d3cf" width="112" height="114" x="8" y="179" rx="56" ry="56"/>
   <path style="fill:#f6f5f4" d="M 123.99993,235 A 59.999995,59.999995 0 0 1 63.999945,294.99999 59.999995,59.999995 0 0 1 3.9999381,235 59.999995,59.999995 0 0 1 63.999945,175 59.999995,59.999995 0 0 1 123.99993,235 Z"/>
   <circle style="fill:#3d3846" cx="64" cy="235" r="54"/>
   <path d="m 64.000045,181 a 54,54 0 0 0 -54,54 54,54 0 0 0 0.0415,1.1709 A 54,54 0 0 1 64.000045,183 54,54 0 0 1 117.95854,235.82813 54,54 0 0 0 118.00004,235 54,54 0 0 0 64.000035,181 Z" style="opacity:0.1"/>
   <path style="fill:#f6f5f4" d="m 65.072361,214.54905 c -0.347693,0.01 -0.698846,0.0274 -1.056641,0.043 -4.249307,0.18441 -11.768878,0.0334 -14.701176,3.49414 -1.79185,2.11478 -0.95679,7.03208 1.78907,7.54297 3.420737,0.63648 9.20487,-0.94255 12.912106,-0.55469 2.584869,0.27042 3.341361,2.34962 1.236328,3.79297 -2.228894,1.52822 -7.289102,1.06446 -9.84375,1.83203 -8.832214,2.65371 -12.006374,8.27572 -9.843754,15.89453 1.41014,4.96796 6.400574,8.65597 11.845708,8.86523 10.474581,-0.023 8.521935,-5.30894 13.59375,-2.55859 1.669096,1.92646 5.032296,2.547 6.77539,1.19336 2.802462,-2.17636 7.029808,-3.34279 4.048828,-7.79687 -1.427561,-2.13298 1.899324,-4.89715 1.150391,-15.51172 -0.664404,-9.41621 -6.689836,-15.87493 -16.875,-16.23633 -0.339503,-0.0121 -0.683558,-0.01 -1.03125,0 z m -0.332031,22.75586 c 2.359104,0 4.21875,1.65161 4.21875,3.70703 0,2.05542 -1.859646,3.75 -4.21875,3.75 -2.359102,0 -4.304688,-1.69458 -4.304688,-3.75 0,-2.05542 1.945586,-3.70703 4.304688,-3.70703 z"/>
  </g>
 </g>
</svg>
